X: 1
T: Leaky Spigot, The
Z: Wizzard
S: https://thesession.org/tunes/14527#setting26763
R: reel
M: 4/4
L: 1/8
K: Edor
|:BEEFGFGA|BEEEd2cd|BEEFGFGA|1BcdAFDD2:|2B2AFBEE2|
|:(3Bcd efg2 eg|f2 df[1gfed |(3Bcd efgeaf|gedBAFD2:|2g2fg|afgefdBc|dBAFBEE2|
